!!!SOCIAL_FUNCTION:	songs connected with expeditions to obtain salt
!!!PDT:	1929
!!!OTL: No_123_The_Wind_Blows_from_the_Sea.krn
!!!REG: Southwest
!!!LANG: Non-Tone
!!!LING_GROUP: Uto-Aztecan
**kern
*staff1
=1-
*clefF4
*k[b-e-]
*M3/4
4.c\
8c\
8c\L
8c\J
=2||
*M2/4
4.c\
8G\
=3
16c\LK
8.c\J
8c\L
8c\J
=4!|:
8c\L
8B-\J
8G\L
8G\J
=5
4B-\
8G\L
8B-\J
=6||
*M3/4
8G\L
8F\J
8F\L
8G\J
8G\
16r
16B-\
=7||
*M2/4
4B-\
8B-\L
8c\J
=8
8B-\L
8G\J
8F\L
8F\J
=9
4G\
8F\L
8G\J
=10||
*M3/4
4F\
8D\L
8F\J
8F\
8r
=11
8G\L
8G\J
8G\L
8F\J
8F\L
8F\J
=12||
*M2/4
4G\
8G\L
8F\J
=13
8G\L
8G\J
8F\L
8G\J
=14
4E-\
(8E-/L
16BB-/Jk)
16r
=15
16F\LK
8.F\J
8E-\L
8F\J
=16||
*M3/4
16G\LK
8.F\J
8F\L
8F\J
16F\LK
8.E-\J
=17||
*M2/4
4F\
8F\L
8F\J
=18||
*M3/4
8.F\L
16F\Jk
2F\
=19
8F\L
8c\J
4c\
8c\L
8c\J
==:|!
*-
